static/logos/myMind-wordmark-color.svg

<svg width="100" height="23" viewBox="0 0 100 23" fill="none" xmlns="http://www.w3.org/2000/svg">
<path fill-rule="evenodd" clip-rule="evenodd" d="M7.47962 1.27101L7.47311 1.2701C7.34361 1.25175 7.17041 1.24933 6.88024 1.24933C6.38227 1.24933 5.87758 1.32638 5.36234 1.48645C3.76371 2.02828 2.43627 3.44629 1.72542 5.67639C1.04538 7.8484 1.08953 10.4652 1.89258 13.0404C3.24077 17.2651 6.28309 20.1066 9.16909 20.4575L9.17201 20.4579C9.35074 20.48 9.54251 20.4815 9.78641 20.4815C10.2844 20.4815 10.7891 20.4045 11.3043 20.2444C12.9177 19.6978 14.2641 18.3022 14.9363 16.0705L14.9383 16.0638L14.9404 16.0572C15.6213 13.8845 15.5775 11.2666 14.774 8.69022C13.4288 4.47495 10.3878 1.65191 7.48612 1.27187L7.47962 1.27101ZM15.9662 8.31471C16.8348 11.0973 16.9015 13.9793 16.1333 16.4307C15.3649 18.9814 13.7615 20.7371 11.6905 21.4327C11.0557 21.6315 10.4211 21.7309 9.78641 21.7309C9.55258 21.7309 9.28533 21.7309 9.01809 21.6977C5.47727 21.2671 2.13683 17.9213 0.700445 13.4161C-0.168067 10.6335 -0.234876 7.75156 0.533424 5.30022C1.33512 2.78261 2.90514 0.993787 4.9762 0.298136C5.61089 0.0993787 6.24557 0 6.88024 0C7.14749 0 7.41471 0 7.64854 0.0331263C11.1894 0.496895 14.5298 3.80952 15.9662 8.31471Z" fill="#748297"/>
<path d="M6.74512 10.2611C7.37239 10.2611 7.88086 9.75674 7.88086 9.13473C7.88086 8.51274 7.37239 8.00844 6.74512 8.00844C6.11787 8.00844 5.60938 8.51274 5.60938 9.13473C5.60938 9.75674 6.11787 10.2611 6.74512 10.2611Z" fill="#748297"/>
<path fill-rule="evenodd" clip-rule="evenodd" d="M6.74292 8.02976C6.12723 8.02976 5.6284 8.52466 5.6284 9.13483C5.6284 9.745 6.12723 10.2399 6.74292 10.2399C7.35859 10.2399 7.85742 9.745 7.85742 9.13483C7.85742 8.52466 7.35859 8.02976 6.74292 8.02976ZM5.58594 9.13483C5.58594 8.50093 6.1041 7.98732 6.74292 7.98732C7.38175 7.98732 7.89988 8.50093 7.89988 9.13483C7.89988 9.76876 7.38175 10.2823 6.74292 10.2823C6.1041 10.2823 5.58594 9.76876 5.58594 9.13483Z" fill="white"/>
<path d="M12.2171 14.3355L8.60938 5.09331L14.2547 13.5406L12.2171 14.3355Z" fill="#748297"/>
<path d="M41.3426 10.7251V16.7453H39.0587V11.0174C39.0587 9.49767 38.2773 8.62097 36.895 8.62097C35.6328 8.62097 34.7914 9.49767 34.6711 10.6666V10.7251V16.7453H32.4472V11.0174C32.4472 9.49767 31.6058 8.62097 30.4039 8.62097C28.9613 8.62097 28.0599 9.67301 28.0599 11.0174V16.6869H25.8359V6.75062H27.9395V8.09492C28.4804 7.2182 29.3821 6.57526 30.8845 6.57526C32.3271 6.57526 33.469 7.2182 34.1302 8.38719C34.7312 7.33509 35.8733 6.57526 37.4359 6.57526C39.78 6.6337 41.3426 8.27026 41.3426 10.7251Z" fill="#748297"/>
<path d="M43.5002 21.6554L46.0246 15.9859L41.9375 6.80954H44.4619L47.2265 13.5895L49.9913 6.80954H52.4554L45.9042 21.6554H43.5002Z" fill="#748297"/>
<path d="M72.4105 10.7251V16.7453H70.1265V11.0174C70.1265 9.49767 69.3452 8.62097 67.9629 8.62097C66.7007 8.62097 65.8593 9.49767 65.7392 10.6666V10.7251V16.7453H63.4552V11.0174C63.4552 9.49767 62.6136 8.62097 61.4117 8.62097C59.9691 8.62097 59.0677 9.67301 59.0677 11.0174V16.6869H56.8438V6.75062H58.9473V8.09492C59.4882 7.2182 60.3899 6.57526 61.8926 6.57526C63.3349 6.57526 64.477 7.2182 65.138 8.38719C65.7392 7.33509 66.8811 6.57526 68.4437 6.57526C70.8478 6.6337 72.4105 8.27026 72.4105 10.7251Z" fill="#748297"/>
<path d="M77.0436 3.36032C77.0436 4.12015 76.3826 4.70462 75.6013 4.70462C74.82 4.70462 74.2188 4.12015 74.2188 3.36032C74.2188 2.60048 74.88 2.01599 75.6013 2.01599C76.4427 1.95755 77.0436 2.60048 77.0436 3.36032ZM74.5195 16.745V6.80876H76.7432V16.745H74.5195Z" fill="#748297"/>
<path d="M88.0993 10.7251V16.7453H85.8151V11.0174C85.8151 9.49767 84.9134 8.62097 83.5909 8.62097C82.1488 8.62097 81.2474 9.67301 81.2474 11.0174V16.6869H79.0234V6.75062H81.127V8.09492C81.6679 7.2182 82.6297 6.57526 84.1325 6.57526C86.416 6.6337 88.0993 8.15337 88.0993 10.7251Z" fill="#748297"/>
<path d="M97.8956 16.7455V15.3426C97.3547 16.2779 96.0922 16.9208 94.5298 16.9208C91.7047 16.9208 89.6016 14.9335 89.6016 11.7773C89.6016 8.62114 91.7047 6.63387 94.5298 6.63387C96.0922 6.63387 97.2348 7.21837 97.7757 8.03664V1.66576H99.9989V16.7455H97.8956ZM91.8855 11.7773C91.8855 13.8815 93.1473 15.0505 94.8906 15.0505C96.5731 15.0505 97.7757 13.9984 97.7757 12.0112V11.4851C97.7757 9.49784 96.5731 8.44573 94.8906 8.44573C93.1473 8.44573 91.8855 9.67317 91.8855 11.7773Z" fill="#748297"/>
</svg>

<svg xmlns="http://www.w3.org/2000/svg" width="278.261" height="64" fill="none" viewBox="0 0 100 23"><path fill="#748297" fill-rule="evenodd" d="M7.48 1.271h-.007a4.7 4.7 0 0 0-.593-.022c-.498 0-1.002.077-1.518.237-1.598.542-2.926 1.96-3.637 4.19-.68 2.172-.635 4.79.168 7.364 1.348 4.225 4.39 7.067 7.276 7.418h.003c.179.022.37.024.614.024.498 0 1.003-.078 1.518-.238 1.614-.546 2.96-1.942 3.632-4.174l.002-.006.002-.007c.681-2.172.638-4.79-.166-7.367-1.345-4.215-4.386-7.038-7.288-7.418L7.48 1.27Zm8.486 7.044c.869 2.782.935 5.664.167 8.116-.768 2.55-2.371 4.306-4.442 5.002a6.34 6.34 0 0 1-1.905.298c-.233 0-.5 0-.768-.033-3.54-.43-6.881-3.777-8.318-8.282C-.168 10.633-.235 7.752.533 5.3 1.335 2.783 2.905.994 4.976.298A6.341 6.341 0 0 1 6.88 0c.267 0 .535 0 .769.033 3.54.464 6.88 3.777 8.317 8.282Z" clip-rule="evenodd"/><path fill="#748297" d="M6.745 10.261c.627 0 1.136-.504 1.136-1.126 0-.622-.509-1.127-1.136-1.127-.627 0-1.136.505-1.136 1.127s.509 1.126 1.136 1.126Z"/><path fill="#fff" fill-rule="evenodd" d="M6.743 8.03a1.11 1.11 0 0 0-1.115 1.105c0 .61.5 1.105 1.115 1.105a1.11 1.11 0 0 0 1.114-1.105A1.11 1.11 0 0 0 6.743 8.03ZM5.586 9.135c0-.634.518-1.148 1.157-1.148S7.9 8.501 7.9 9.135c0 .634-.518 1.147-1.157 1.147a1.152 1.152 0 0 1-1.157-1.147Z" clip-rule="evenodd"/><path fill="#748297" d="M12.217 14.335 8.61 5.093l5.646 8.448-2.038.794ZM41.343 10.725v6.02h-2.284v-5.728c0-1.52-.782-2.396-2.164-2.396-1.262 0-2.104.877-2.224 2.046V16.745h-2.224v-5.728c0-1.52-.841-2.396-2.043-2.396-1.443 0-2.344 1.052-2.344 2.396v5.67h-2.224V6.75h2.104v1.344c.54-.877 1.442-1.52 2.944-1.52 1.443 0 2.585.643 3.246 1.812.601-1.052 1.743-1.812 3.306-1.812 2.344.059 3.907 1.695 3.907 4.15ZM43.5 21.655l2.525-5.67-4.087-9.175h2.524l2.764 6.78 2.765-6.78h2.464l-6.55 14.845H43.5ZM72.41 10.725v6.02h-2.284v-5.728c0-1.52-.78-2.396-2.163-2.396-1.262 0-2.104.877-2.224 2.046V16.745h-2.284v-5.728c0-1.52-.841-2.396-2.043-2.396-1.443 0-2.344 1.052-2.344 2.396v5.67h-2.224V6.75h2.103v1.344c.541-.877 1.443-1.52 2.946-1.52 1.442 0 2.584.643 3.245 1.812.601-1.052 1.743-1.812 3.306-1.812 2.404.059 3.966 1.695 3.966 4.15ZM77.044 3.36c0 .76-.661 1.345-1.443 1.345-.781 0-1.382-.585-1.382-1.345s.661-1.344 1.382-1.344c.842-.058 1.443.584 1.443 1.344Zm-2.525 13.385V6.809h2.224v9.936H74.52ZM88.1 10.725v6.02h-2.285v-5.728c0-1.52-.902-2.396-2.224-2.396-1.442 0-2.344 1.052-2.344 2.396v5.67h-2.224V6.75h2.104v1.344c.54-.877 1.503-1.52 3.005-1.52 2.284.059 3.967 1.578 3.967 4.15ZM97.896 16.745v-1.402c-.541.935-1.804 1.578-3.366 1.578-2.825 0-4.928-1.987-4.928-5.144 0-3.156 2.103-5.143 4.928-5.143 1.562 0 2.705.584 3.246 1.403V1.666h2.223v15.08h-2.103Zm-6.01-4.968c0 2.105 1.261 3.274 3.005 3.274 1.682 0 2.885-1.053 2.885-3.04v-.526c0-1.987-1.203-3.04-2.885-3.04-1.744 0-3.006 1.228-3.006 3.332Z"/></svg>
